X: 1950
T: Yabandan Geldim Yabandan
C: İsmail Hakkı Bey
O: Turkey
F: http://compmusic.upf.edu/node/140
N: hicazkar--kocekce--aydin--yabandan_geldim--muallim_ismail_hakki_bey
N: makam= hicazkar
N: form= kocekce
N: usul= aydin = 9/8
M: 9/8
L: 1/16
K: C _1/4B _7/8e _7/8A ^f
Q: 1/4=192
%%MIDI tuningsystem comma53
g4 g2g2 g4 g2g2 g2 | c4g2 g2c4g2 g2g2  | \
w:  ARANAĞME  |   | 
f2g2 =a2_b2 g2g2 f2e2 d2 | 
w:   | 
f4f2 g2g2 f2e2 d2c2  | f2g2 =a2_b2 a2g2 f2e2 d2 | \
w:   |   | 
g4f2 g2=a2 f2g4z2  | 
w:   | 
f2g2 =a2_b2 a2g2 f2e2 d2 | f4f2 g2g2 f2e2 d2c2  | \
w:   |   | 
e4 d2c2 g4 e2d2 c2 | 
w:   | 
B4c4B2 A2G4z2  | G4 c2c2 _2/4e4 g4 z2 | \
w:   |   | 
=f4d2 f2_2/4e2 d2c2 B2=A2  | G4 c2c2 _2/4e4 g4 z2 | 
w:   |   | 
=a2 g2g2 =f2f2 _2/4e2e2 d2c2  | G4 c2c2 _2/4e4 g4 z2 | \
w:   |   | 
=f4d2 f2_2/4e2 d2c2 B2=A2  | 
w:   | 
G4 c2c2 _2/4e4 g4 z2 | =f4_2/4e2 f2e2 =a2g4z2  | \
w:   |   | 
f2g2 =a2_b2 c'4 b2a2 g2 | 
w:   | 
g3fe2 d2e2 f2g4f2  | f3e d2c2 B2c2 d4 c2 | \
w:   |   | 
B4B2 c2B2 A2G4z2  | 
w:   | 
B2c2 B2A2 B2c2 c2B2 A2 | B2 c2B2 A2B2 c2d4z2  | \
w:   |   | 
B2c2 B2A2 B2c2 c2B2 A2 | 
w:   | 
B2 c2B2 A2G4G2 G4  | B2c2 B2A2 B2c2 c2B2 A2 | \
w:   |   | 
B2 c2B2 A2B2 c2d4z2  | 
w:   | 
B2c2 B2A2 B2c2 c2B2 A2 | B2 c2B2 A2G4g4f2  | \
w:   |   | 
g2z2 g2g2 g4 g6 | 
w:  *  Ya ban dan  gel  | 
f2 g2=a2 _b2a2 g2f2 e2d2  | e2z2 e2e2 e4 e3d c2 | \
w:  dim  *  ya *  ban *  dan    |  *  Ha be rin  al  | 
d4e2 d2c2 B2c4g2  | 
w:  dım  ço *  ban *  dan    | 
g2z2 g2g2 g4 g6 | f2 g2=a2 _b2a2 g2f2 e2d2  | \
w:  *  Ya ban dan  gel  |  dim  *  ya *  ban *  dan    | 
e2z2 e2e2 e4 e3d c2 | 
w:  *  Ha be rin  al  | 
d4e2 d2c2 B2c4_2/4e2  | =f2z2 f2_2/4e2 d4 g6 | \
w:  dım  ço *  ban *  dan    |  *  a  ley lim  a  | 
=f2 e2d2 c2B2 A2G4z2  | 
w:  man  *  *  a man    | 
B4 c4 B2A2 G6 | =f4_2/4e2 d2e2 f2g4z2  | \
w:  Gel  gi de *  lim   |  yav ru  *  ku *  zum   | 
c2e2 d2c2 B4 G2A2 B2 | G2 ccc2 c2c2 d2=e2 d2c2  | 
w:  gel  *  a *  ca nım   |  gel   SAZ  | 
|


